X:1
T:Missa Surge Propera (3: Kyrie Eleison)
T:Lupus Hellinck
T:Leiden Choirbooks - Codex F - folio 7
%%score 1 2 3 4
L:1/8
Q:1/4=96
M:4/4
K:C
V:1 treble nm="Superius" snm="S."
V:2 treble nm="Contra" snm="C."
V:3 treble-8 nm="Tenor" snm="T."
V:4 bass nm="Bassus" snm="B."
V:1
"^Andante" z8 | z8 | z8 | z2 A2 c3 d | e2 f2 d2 c2 | f4 e2 c2 | d4 e4- | e4 z2 e2 | e6 dc | %9
w: |||Ky _ rie|_ _ _ _|||||
 d2 e4 c2 | d2 e2 A2 c2 | B4 A2 e2- | ed c4 BA | B2 c4 BA | B2 c2 B2 A2- | A2 ^G2 A4- | A4 z4 | %17
w: |* e- ley- son|_ _ _||||||
 z8 | z8 | z4 e4 | f6 d2 | d8 | e6 c2 | d4 e4 | A4 z2 d2- | d2 B4 G2 | G4 c4 | B2 A4 ^G2 | A4 c4- | %29
w: ||Ky-|rie _|_||||||||
 c2 c2 c4 | A4 G4 | z2 A3 Bcd | e2 f2 g2 e2 | f6 ed | c2 d4 ^c2 | d8- | d8- | d8- | d8- | d8 |] %40
w: * e- lei-|son _||||* * son|_|||||
V:2
 z8 | z8 | z8 | A4 A4- | A2 F2 G2 A2- | A2 GF G2 A2 | D2 F2 E4 | z2 A2 A4- | A2 GF G2 A2 | %9
w: |||Ky _|_ rie _ _|_ _ _ _ _||||
 F2 G2 A4 | G2 E2 F2 A2- | A2 ^G2 A4- | A4 z4 | z4 A4 | G2 E2 F2 D2 | E8 | z2 E2 E4- | %17
w: |* e- ley- son|_ _ _|||* e- ley- son|_||
 E2 C2 D2 E2- | E2 DC D2 E2- | ED D4 C2 | D8 | z2 D4 B,2 | C3 D E4 | z4 E4 | F6 D2 | D8 | E6 C2 | %27
w: ||||Ky- rie|_ _ _|||||
 D4 E4 | z2 A,3 B,CD | E2 A,B, CD E2- | ED D4 C2 | D8 | z2 A2 _B2 A2 | F4 F3 G | A2 B2 A4- | %35
w: |||* e- ley- son|_||||
 A2 D2 F3 G | A2 _B4 A2 | G6 FE | F8- | F8 |] %40
w: ||e- ley- son|_||
V:3
 A4 c3 d | e2 f2 d2 c2 | f4 e2 c2 | d2 f4 ed | c2 d2 B2 A2 | d4 c2 f2- | fe d4 cB | c4 z2 A2 | %8
w: Ky _ rie|_ _ _ _||||||* Ky|
 c3 d e2 f2 | d2 c4 A2 | B2 c2 d2 A2 | e4 z2 A2 | c3 d e2 f2 | d2 c2 f4 | e2 c2 d2 A2 | B4 A4 | %16
w: _ rie _ _|_ _ _|||||* e- ley- son|_ _|
 z2 c4 BA | B2 c2 A2 B2 | c2 A2 B4 | A4 z4 | z6 d2- | d2 B2 G2 g2- | g2 f2 c2 e2- | e2 d4 c2 | d8 | %25
w: |||||||||
 z2 d4 B2 | c6 c2 | G2 A2 B4 | c8 | z2 A3 Bcd | e2 f2 g2 e2 | f6 ed | c2 d4 c2 | d4 e4 | d8- | %35
w: |||||||* * e-|ley- son|_|
 d8- | d8- | d8- | d8- | d8 |] %40
w: |||||
V:4
 A,4 A,4- | A,2 F,2 G,2 A,2- | A,2 G,F, G,2 A,2 | D,4 z4 | z8 | z8 | z4 A,4- | A,2 A,2 D2 C2 | %8
w: Ky- rie|_ _ _ _|||||||
 A,4 z4 | z8 | z8 | z4 A,4 | A,6 F,2 | G,2 A,4 G,F, | G,2 A,2 D,2 F,2 | E,4 z2 A,2 | A,6 G,F, | %17
w: ||||||e- ley- son _|_||
 G,2 A,2 F,2 G,2 | A,4 G,2 E,2 | F,2 D,2 E,4 | D,2 D4 B,2- | B,2 G,2 G,4 | z2 C3 B, A,2 | %23
w: |* * e-|ley- son _|_ _ _|||
 G,2 F,2 E,4 | D,2 D4 C2- | C2 G,2 G,4 | z2 C3 B, A,2 | G,2 F,2 E,4 | A,4 z2 A,2- | %29
w: |||||* Ky-|
 A,B,CD E2 A,2- | A,G, F,2 E,4 | D,2 D4 CB, | A,2 D2 G,2 A,2 | D,2 D4 CB, | A,2 G,2 A,4 | %35
w: * rie _ _ _ _|_ _ _ _|||||
 z2 _B,4 A,G, | F,2 G,4 F,2 | G,4 D,4- | D,8- | D,8 |] %40
w: * * e-|ley- son *||||

